X:1
T:Mary Ann
F:http://www.folkinfo.org/songs
B:The Penguin Book of Canadian Folk Songs.
S:
M:2/4
L:1/4
K:C
z z1/2 E1/2|G3/2 E1/2| c3/2 A1/2| G E|C2 |
w:Oh, fare thee well, my own true love!
G3/2 E1/2| G e| d2-|d G3/4 G1/4|e (e/c/)|
w:Fare thee well, my dear!*For the ship is
(d/B/) c3/4 B1/4|c c|E3/2 F1/2| G G|(A1/2G) G1/2|
w:wait-ing, *the wind blows high, And I am bound *a-
c c3/4 c1/4|C E3/4 D1/4|C2-|C z1/2 E1/2|G G|
w:way for the sea. Ma-ry Ann! *And I am
(A1/2G) G1/2| c c3/4 c1/4| C E3/4 D1/4|C2 ||
w:bound *a-way for the sea, Ma-ry Ann!